plasma/desktoptheme/Arc-Dark/icons/ktorrent.svg

<svg xmlns="http://www.w3.org/2000/svg" width="32" height="32" version="1">
 <g id="22-22-ktorrent" transform="translate(32.000001,10.000001)">
  <rect style="opacity:0.001" width="22" height="22" x="0" y="0"/>
  <path style="fill:#d3dae3" d="M 8.6953125,3 C 8.3523605,3 8.0433531,3.3617296 8,3.8066406 V 10 H 4 l 7,7 7,-7 H 14 V 3.8066406 C 14,3.3597156 13.64764,3 13.304688,3 Z M 11,17 H 3.8007813 C 3.3575813,17 3,17.446 3,18 c 0,0.554 0.3575813,1 0.8007813,1 H 18.199219 C 18.642419,19 19,18.554 19,18 19,17.446 18.642419,17 18.199219,17 Z"/>
 </g>
 <g id="ktorrent">
  <rect style="opacity:0.001" width="32" height="32" x="0" y="0"/>
  <path style="fill:#d3dae3" d="m 12.042485,4 c -0.514429,0 -0.97794,0.5425945 -1.042969,1.209961 V 15 H 5.5000003 L 16,25.000001 26.500001,15 H 21.000484 V 5.209961 C 21.000484,4.5395734 20.471943,4 19.957516,4 Z M 16,25.000001 H 5.2011722 c -0.6647999,0 -1.2011719,0.669 -1.2011719,1.499999 0,0.831 0.536372,1.5 1.2011719,1.5 H 26.798829 C 27.46363,28 28,27.331 28,26.5 28,25.669001 27.46363,25.000001 26.798829,25.000001 Z"/>
 </g>
</svg>

<?xml version="1.0" encoding="UTF-8"?>
<svg width="32" height="32" version="1" xmlns="http://www.w3.org/2000/svg">
 <g id="22-22-ktorrent" transform="translate(32 10)">
  <rect width="22" height="22" opacity=".001"/>
  <path d="m8.6953 3c-0.34295 0-0.65196 0.36173-0.69531 0.80664v6.1934h-4l7 7 7-7h-4v-6.1934c0-0.44692-0.35236-0.80664-0.69531-0.80664zm2.3047 14h-7.1992c-0.4432 0-0.80078 0.446-0.80078 1s0.35758 1 0.80078 1h14.398c0.4432 0 0.80078-0.446 0.80078-1s-0.35758-1-0.80078-1z" fill="#d3dae3"/>
 </g>
 <g id="ktorrent">
  <rect width="32" height="32" opacity=".001"/>
  <path d="m12.042 4c-0.51443 0-0.97794 0.54259-1.043 1.21v9.79h-5.4995l10.5 10 10.5-10h-5.4995v-9.79c0-0.67039-0.52854-1.21-1.043-1.21zm3.9575 21h-10.799c-0.6648 0-1.2012 0.669-1.2012 1.5 0 0.831 0.53637 1.5 1.2012 1.5h21.598c0.6648 0 1.2012-0.669 1.2012-1.5 0-0.831-0.53637-1.5-1.2012-1.5z" fill="#d3dae3"/>
 </g>
</svg>
